X: 1
T:Oakey's Strike
M:6/8
L:1/8
C:Tommy Armstrong
K:C
|E2AA2B|A2GE2D|E2AA2B|A3 A2 B|ccB c2 A|
G2 E CDE| F2ED2C| B,6| EEA A2B| A2GE2D|
E2 AA2B|A3A2B|c2Bc2A|GED C2 E| F2ED2C|
B,6| C3B, B,2|A,6 DD| E2 A AAB| A3 A2B|
c2Bc2A|G2EC2D|EFE DCB,|A,3A,3|
